!!!COM: Scriabin, Alexander
!!!OTL@@FR: Prélude en mi bémol majeur
!!!OTL@@EN: Prelude in Eb Major
!!!OPR@@FR: 7 Préludes
!!!OPR@@EN: 7 Preludes
!!!OPS: 17
!!!ONM: 2
!!!ODT: 1895
!!!AGN: Prelude
**kern	**kern	**dynam
*staff2	*staff1	*staff1/2
*Ipiano	*Ipiano	*
*clefF4	*clefG2	*
*k[b-e-a-]	*k[b-e-a-]	*
*E-:	*E-:	*
*M2/4	*M2/4	*
8DDL 8D	4r	mf
8DD-X 8D-X	.	.
=1	=1	=1
*Xtuplet	*Xtuplet	*
12BB-J 12B-	4G 4e- 4b-	.
12DD-XL 12D-X	.	.
12CC 12C	.	<
12BB-J 12B-	4G 4en 4b-	(
12CCL 12C	.	(
12CC-X 12C-X	.	[
=2	=2	=2
*	*^	*
12FFJ 12F	4A- 4e-X	8.a-L	>
12CC-XL 12C-X	.	.	)
12BBB- 12BB-	.	.	)
.	.	16gJk	)
12BB-J 12B-	4A-	4d 4f	]
12AAAnL 12AAn	.	.	.
12BBB- 12BB-	.	.	.
*	*v	*v	*
=3	=3	=3
12GGJ 12G	4F 4d 4g	<
12BBB-L 12BB-	.	.
12BBBn 12BBn	.	.
12GGJ 12G	4F 4d-X 4g	.
12BBBL 12BB	.	.
12CC 12C	.	.
!!LO:LB:g=original
=4	=4	=4
12GGJ 12G	8.EnL 8.c 8.en	.
12BBBnL 12BBn	.	.
12BBB-X 12BB-X	.	.
.	16d-XJk	.
*	*^	*
12GGJ 12G	4E	4c	.
12BBB-L 12BB-	.	.	.
12AAAn 12AAn	.	.	.
*	*clefF4	*	*
=5	=5	=5	=5
*	*	*	*^
!	!	!	!LO:HP:b=1	!LO:DY:a=2
12FFJ 12F	4E-	8.fL	>	<
12AAAnL 12AAn	.	.	)	.
12AAA-X 12AA-X	.	.	)	.
.	.	16c-XJk	)	.
12FFJ 12F	4E-	4c-	]	.
12AAA-L 12AA-	.	.	.	.
12GGG 12GG	.	.	.	.
*	*	*	*v	*v
=6	=6	=6	=6
12EE-J 12E-	4E-	6c-X 6e-	.
12GGGL 12GG	.	.	.
12GGG-X 12GG-X	.	12B- 12b-	.
12EE-J 12E-	4E-	4B- 4b-	.
12GGG-L 12GG-	.	.	.
12FFF 12FF	.	.	.
*	*clefG2	*	*
=7	=7	=7	=7
12FFJ 12F	4B- 4d	8b-L	f
12BBB-L 12BB-	.	.	.
.	.	8fJ	.
12FFF 12FF	.	.	.
12FFJ 12F	4An 4e-	8ccL	.
12CCL 12C	.	.	.
.	.	8b-J	.
12FFF 12FF	.	.	.
!!LO:LB:g=original
=8	=8	=8	=8
12FFJ 12F	4B- 4d	4b-	>
12BBB-L 12BB-	.	.	)
12FF 12F	.	.	)
*	*v	*v	*
12DJ 12d	4r	)
12DDL 12D	.	)
12DD-X 12D-X	.	]
=9	=9	=9
12GJ 12e- 12g	4b- 4ee- 4bb-	f <
12DD-XL 12D-X	.	(
12CC 12C	.	(
12GJ 12en 12g	4b- 4een 4bb-	(
12CCL 12C\	.	(
12CC-X 12C-X	.	[
=10	=10	=10
12FJ 12e-X 12f	8.a-L 8.ee-X 8.aa-	>
12CC-XL 12C-X\	.	)
12BBB- 12BB-	.	)
.	16gJk 16gg	)
12A-J 12d 12a-	4f 4dd 4ff	]
12AAAnL 12AAn\	.	.
12BBB- 12BB-	.	.
=11	=11	=11
12GJ 12d 12g	4f 4dd 4gg	<
12BBB-L 12BB-\	.	(
12BBBn 12BBn	.	(
12GJ 12d-X 12g	4f 4dd-X 4gg	(
12BBBL 12BB6\	.	(
12CC 12C	.	[
!!LO:LB:g=original
=12	=12	=12
12GLJ 12c 12g	8.enL 8.cc 8.een	>
12BBBnL 12BBn	.	)
12BBB-X 12BB-X	.	)
.	16d-XJk 16dd-X	)
12GJ 12en	4c 4g 4cc	]
12GGGL 12GG	.	mp
12AAA- 12AA-	.	.
=13	=13	=13
*	*^	*
12FJ 12c 12f	4e-	8.ccL 8.ff	.
12AAA-L 12AA-	.	.	.
12AAAn 12AAn	.	.	.
.	.	16cc-XJk	.
12FJ 12c-X 12f	4e-	4cc-	.
12AAAL 12AA	.	.	<
12BBB- 12BB-	.	.	.
=14	=14	=14	=14
12FJ 12B- 12f	4e-	8.b-L 8.ff	.
12BBB-L 12BB-\	.	.	.
12CC-X 12C-X	.	.	.
.	.	16anJk	.
12FJ 12An 12f	4e-	4a	.
12CCnL 12Cn	.	.	.
12DD-X 12D-X	.	.	.
=15	=15	=15	=15
12B-J 12f 12b-	4a-X	8.ffL 8.aa-	.
12DD-XL 12D-X	.	.	.
12DDn 12Dn	.	.	.
.	.	16ff-XJk	.
12B-J 12f-X 12b-	4a-	4ff-	.
12DDL 12D	.	.	.
12EE- 12E-	.	.	.
!!LO:LB:g=original
=16	=16	=16	=16
12B-J 12e- 12b-	4a-	8.ee-L 8.bb-	<
12EE-L 12E-	.	.	.
12FF-X 12F-X	.	.	.
.	.	16ddJk	.
12B-J 12d 12b-	4a-	4dd	.
12FFnL 12Fn	.	.	p
12GG-X 12G-X	.	.	.
*	*v	*v	*
=17	=17	=17
12B-J 12f-X 12b-	4dd-X 4bb- 4ddd-X	.
12FFnL 12Fn	.	.
12GG-X 12G-X	.	.
12B-J 12f- 12b-	4ddn 4bb- 4dddn	.
12FFnL 12Fn	.	.
12GG- 12G-	.	.
=18	=18	=18
12B-J 12e- 12b-	8ee- 8bb- 8eee-	.
12BB-L 12B-	.	.
.	4b- 4ee- 4bb-	.
12F 12f	.	.
12G-XJ 12g-X	.	.
12FFL 12F	.	.
.	8b- 8bb-	pp
12GG-X 12G-	.	.
=19	=19	=19
*	*^	*
12B-J 12f-X 12b-	8aa-L 8aaa-	4ddd-X	.
12FFnL 12Fn	.	.	.
.	8gg-XJ 8ggg-X	.	.
12GG-X 12G-X	.	.	.
12B-J 12f-X 12b-	8dd-XL 8ddd-	4bb-	.
12FFnL 12Fn	.	.	.
.	8ddnJ 8dddn	.	.
12GG- 12G-	.	.	.
*	*v	*v	*
!!LO:LB:g=original
=20	=20	=20
12B-J 12e- 12b-	4.ee- 4.bb- 4.eee-	.
12BB-L 12B-	.	.
12F 12f	.	.
12G-XJ 12g-X	.	.
12FFL 12F	.	.
.	8b- 8bb-	.
12GG-X 12G-	.	.
=21	=21	=21
12B-J 12f-X 12b-	4dd-X 4bb- 4ddd-X	.
12GG-XL 12G-X	.	.
12GGn 12Gn	.	.
12F-XJ 12B- 12f-	4dd- 4bb- 4ddd-	.
12GGL 12G	.	.
12AA- 12A-	.	.
=22	=22	=22
12F-XJ 12c-X 12f-X	4cc-X 4ff-X 4ccc-X	<
12AA-L 12A-	.	.
12AAn 12An	.	.
12F#XJ 12c- 12f#X	4cc- 4ee- 4ccc-	.
12AAL 12A	.	.
12BB- 12B-	.	.
=23	=23	=23
12GJ 12e- 12g	4b- 4ee- 4bb-	.
12AAnL 12An	.	.
12BB- 12B-	.	.
12GBJ 12B- 12g	4e- 4b- 4ee-	.
12AAL 12A	.	.
12BB- 12B-	.	.
!!LO:LB:g=original
=24	=24	=24
12A-XJ 12c-X 12e- 12a-X	4g 4cc-X 4ee- 4gg	.
12AAAnL 12AAn\	.	.
12BBB- 12BB-	.	.
12A-XJ 12B- 12d 12a-X	8.fL 8.dd 8.ff	.
12BB-L 12B-	.	.
12EEE- 12EE-	.	.
.	16f#XJk 16ff#X	.
=25	=25	=25
12BB-J 12B-	4g 4b- 4ee- 4gg	f
12EE-L 12E-	.	.
12AAA- 12AA-	.	.
12C-XJ 12c-X	4g 4cc-X 4ee- 4gg	.
12EE-L 12E-	.	.
12EEE- 12EE-	.	.
=26	=26	=26
12BB-J 12B-	8.gL 8.b- 8.ee- 8.gg	.
12EE-L 12E-	.	.
12AAA- 12AA-	.	.
.	16fJk 16ff	.
12C-XJ 12c-X	4e- 4a- 4cc-X 4ee-	.
12EE-L 12E-	.	.
12EEE- 12EE-	.	.
=27	=27	=27
12BB-J 12B-	4G 4e- 4g	mf
12EE-L 12E-	.	.
12AAA- 12AA-	.	.
12C-XJ 12c-X	4A- 4e- 4g	.
12EE-L 12E-	.	.
12EEE- 12EE-	.	.
!!LO:LB:g=original
=28	=28	=28
12BB-J 12B-	8.GL 8.e- 8.g	.
12EE-L 12E-	.	.
12AAA- 12AA-	.	.
.	16fJk	.
12C-XJ 12c-X	4A- 4e-	.
12EE-L 12E-	.	.
12EEE- 12EE-	.	.
=29	=29	=29
*	*^	*
12BB-J 12B-	4G 4e-	8.gL	.
12EE-L 12E-	.	.	.
12AAA- 12AA-	.	.	.
.	.	16fJk	.
12C-XJ 12c-X	4A-	8.e-L	<
12EE-L 12E-	.	.	.
12AAA- 12AA-	.	.	.
.	.	16fJk	.
*	*v	*v	*
=30	=30	=30
12C-XJ 12c-X	4A- 4e- 4a-	.
12AA-L 12A-	.	.
12EE- 12E-	.	.
12E-J 12e-	4c-X 4a- 4cc-X	.
12C-L 12c-	.	.
12AA- 12A-	.	.
=31	=31	=31
12FJ 12f	4e- 4cc-X 4ee-	ff
12E-L 12e-	.	.
12F 12f	.	.
12AA-J 12A-	[4f [4cc- [4ee- [4ff	.
12BB-L 12B-	.	.
12C-X 12c-X	.	.
!!LO:LB:g=original
=32	=32	=32
12EE-J 12E-	4f] 4cc-] 4ee-] 4ff]	.
12FFL 12F	.	.
12EE- 12E-	.	.
12AAA-J 12AA-	4f#X 4cc-X 4ee- 4ff#X	.
12BBB-L 12BB-	.	.
12CC-X 12C-X	.	.
=33	=33	=33
12BBB-J 12BB-	2g 2b- 2ee- 2gg	.
12EEE-L 12EE-	.	.
12BBB- 12BB-	.	.
12EE-J 12E-	.	.
12BB-L 12B-	.	.
12E-J 12e-	.	.
=34	=34	=34
4B- 4b-	4r	.
8r	8r	.
8EE- 8BB- 8E-	8G 8B- 8e- 8g	ff
=35	=35	=35
[2EE- [2BB- [2E-	[2G [2B- [2e- [2g	.
=36	=36	=36
4EE-] 4BB-] 4E-]	4G] 4B-] 4e-] 4g]	.
4r	4r	.
==	==	==
*-	*-	*-
!!!system-decoration: {(*)}
!!!filter: flipper -a
!!!ENC: Bryan Jacob Bell
!!!END: November 2021 to April 2022
!!!PED: Konstantin Igumnov and Yakov Milstein
!!!PTL: A.N. Skryabin: Polnoe sobranie sochinenii dlia fortepiano (Muzgiz)
!!!URL-pdf: https://github.com/bel28kent/Mysterium/blob/main/reference_editions/op17.pdf
